X: 1
T: Polka d'Auvergne
C: Trad
R: Polka
O: French
M: 2/4
L: 1/8
K: G
Z: ABC transcription by Verge Roller
r: 32
|: "G" DE/F/ GG | "D" F/G/A/F/ "G" G2 | "D" A/B/c/A/ "G" BG | "D" A/B/c/A/ "G" BG|
"G" DE/F/ GG | "D" F/G/A/F/ "G" G2 | "C" A/B/c/A/ "G" Bd | "D" d/c/B/A/ "G" G2 :|
|: "G" dB G/B/d/B/ | "G" G/B/d/B/ "Am" cA | "D" cA F/A/c/A/ | "D" F/A/c/A/ "G" BG |
"G" dB G/B/d/B/ | "G" G/B/d/B/ "Am" cA | "D" cA  F/A/c/A/ | "D" F/D/E/F/ "G" G2 :|
